X:1
T:Feste's Song 2
T:Christopher Dell    
T:William Shakespeare
T:Feste's Song 2
T:For Sue
T:© Grande Merde Music 2014
T:© Grande Merde Music 2014
T:© Grande Merde Music 2014
T:© Grande Merde Music 2014
T:© Grande Merde Music 2014
T:© Grande Merde Music 2014
T:© Grande Merde Music 2014
C:Chris Dell
Z:William Shakespeare
Z:© Grande Merde Music 2014
%%score [ ( 1 2 ) ( 3 4 ) 5 6 ]
L:1/8
Q:1/4=120
M:3/4
K:F
V:1 treble nm="Soprano" snm="S"
V:2 treble 
V:3 treble nm="Alto" snm="A"
V:4 treble 
V:5 treble-8 nm="Tenor" snm="T"
V:6 bass nm="Bass" snm="B"
V:1
 z6 | z4!p! (c2 | c3) c c2 |[M:2/4]!>(! c4!>)! |[M:3/2]!mp! c4 c2 B2 A2 GF |[M:4/4] G2 A2 G4 | %6
w: |Come-|* a- way|death,|and in sad Cyp- ress- *|let me be|
w: ||||||
[M:3/4] F6 | z6 | z4!pp! c2 | c3 c c2 | c6 |[M:4/4] c2 B2 A2 GF | (G2 A2) G4 | %13
w: laid.||Fly|_ a- way|breath.|I am slain by a|fair- * cruel|
w: |||||||
[M:3/2] F6!<(! A2 B2 c2!<)! |[M:4/4] d3!mf! d"^rit.""^rit." d2 (cB) | A8 | %16
w: maid. My shroud of|white stuck all with- *|Yew.|
w: |||
[M:3/2]"^a tempo"!mf! B3 c d4 d2 cB | A2 G2 A2 B2 c2 A2 |[M:4/4]"^rit." B3 A G2 G2 | %19
w: Oh! prep- are it. My- *|part of death, no one so|true, no one so|
w: |||
[M:3/2] _A6 F2 C4 |[M:4/4] C8 |[M:3/4]"^a tempo" z6 | z4!mp! (c2 | c3) c c2 |[M:2/4] c4 | %25
w: true did share|it.||Not-|* a flower|sweet,|
w: ||||||
[M:3/2] c4 c2 B2 A2 GF |[M:4/4] G2 A2 G4 |[M:3/4] F6 | z6 | z4!p! (c2 | c3) c c2 | %31
w: On my black cof- fin- *|let there be|strown;||Not-|* a friend|
w: ||||||
[M:3/2] c4 c2 B2 A2 GF |[M:4/4] G2 A2 G4 |[M:3/2] F6!mf!!<(! A2 B2 c2!<)! | %34
w: greet my poor corpse where my|bones shall be|thrown, A thou- sand,|
w: |||
[M:4/4]!f! d3 d"^rit." d2 cB | A8 |[M:3/2]!p! x12 |!mp! A3 B d3 d f3 _e |[M:4/4] (d2 g2) f_e d2 | %39
w: thou- sand sighs to- *|save,||||
w: |||Lay me where true lov- er|nev- er find- * my|
[M:3/2]"^rit.""^rit.""^rit.""^rit." c4 F4 (_e2 d2) |[M:4/4]!>(! c8!>)! |] %41
w: ||
w: grave- to weep- *|there.|
V:2
 x6 | x6 | x6 |[M:2/4] x4 |[M:3/2] x12 |[M:4/4] x8 |[M:3/4] x6 | x6 | x6 | x6 | x6 |[M:4/4] x8 | %12
w: ||||||||||||
 x8 |[M:3/2] x12 |[M:4/4] x8 | x8 |[M:3/2] x12 | x12 |[M:4/4] x8 |[M:3/2] x12 |[M:4/4] x8 | %21
w: |||||||||
[M:3/4] x6 | x6 | x6 |[M:2/4] x4 |[M:3/2] x12 |[M:4/4] x8 |[M:3/4] x6 | x6 | x6 | x6 |[M:3/2] x12 | %32
w: |||||||||||
[M:4/4] x8 |[M:3/2] x12 |[M:4/4] x8 | x8 |[M:3/2] B3 c d4 d2 cB | A2 G2 A2 B2 c2 A2 | %38
w: ||||Lay me, O! where sad true|lov- er nev- er find my|
[M:4/4] B3 (A c2) G2 |[M:3/2] _A6 F2 C4 |[M:4/4] C8 |] %41
w: grave, find- * my|grave to weep|there.|
V:3
!p! F3 F (F2 | F6) | F2 F2 F2 |[M:2/4]!>(! F4!>)! |[M:3/2]!mp! F4 F2 F2 F2 CD |[M:4/4] E2 F4 E2 | %6
w: Come a- way,-||come a- way|death,|And in sad Cyp- ress- *|let me be|
[M:3/4] F6 |!pp! F3 F F2 | F6- | F2 F2 F2 | F6 |[M:4/4] F2 F2 F2 CD | (E2 D2) (_E2 D2) | %13
w: laid.|Fly a- way|breath,-|fly a- way|breath.|I am slain by a|fair- * cruel- *|
[M:3/2] C6!<(! F2 G3 A!<)! |[M:4/4]"^(with)" B3!mf! B (F A2) G | ^F8 |[M:3/2]!mf! G3 A B4 B2 AG | %17
w: maid. My shroud of|white stuck all with _|Yew.|Oh! prep- are it. My- *|
 ^F2 G2 F2 G2 G2 F2 |[M:4/4] D2 (D4 C2) |[M:3/2] C6 B,2 G,4 |[M:4/4] A,8 |[M:3/4]!mp! F3 F F2 | %22
w: part of death, no one so|true, so- *|true, did share|it.|Not a flower|
 F6 | F2 F2 F2 |[M:2/4] F4 |[M:3/2] F4 F2 F2 F2 CD |[M:4/4] E2 F4 E2 |[M:3/4] F6 |!p! F3 F F2 | %29
w: sweet,|not a flower|sweet,|On my black cof- fin- *|let there be|strown.|Not a friend|
 F6- | F2 F2 F2 |[M:3/2] F4 F2 F2 F2 CD |[M:4/4] E2 D2 (_E2 D2) |[M:3/2] C6!mf!!<(! F2 G3 A!<)! | %34
w: greet|not a friend|greet my poor corpse where my|bones shall be- *|thrown, A thou- sand,|
[M:4/4]!f!"^(to)" B3 B F A2 G | ^F8 |[M:3/2]!p! G3 A B4 B2 AG | ^F2 G2 F2 G2 G2 F2 | %38
w: thou- sand sighs to _|save,|Lay me, O! where sad true|lov- er nev- er find my|
[M:4/4] D2 (D2 G2) C2 |[M:3/2] C6 B,2 G,4 |[M:4/4]!>(! A,8!>)! |] %41
w: grave find- * my|grave to weep|there.|
V:4
 x6 | x6 | F2 F2 E2 |[M:2/4] x4 |[M:3/2] x12 |[M:4/4] x8 |[M:3/4] x6 | x6 | x6 | F2 F2 E2 | x6 | %11
[M:4/4] x8 | x8 |[M:3/2] x12 |[M:4/4] B3 B F2 E2 | x8 |[M:3/2] x12 | x12 |[M:4/4] x8 |[M:3/2] x12 | %20
[M:4/4] x8 |[M:3/4] x6 | x6 | F2 F2 E2 |[M:2/4] x4 |[M:3/2] x12 |[M:4/4] x8 |[M:3/4] x6 | x6 | x6 | %30
 F2 F2 E2 |[M:3/2] x12 |[M:4/4] x8 |[M:3/2] x12 |[M:4/4] B3 B (F2 E2) | x8 |[M:3/2] x12 | x12 | %38
[M:4/4] D2 D4 C2 |[M:3/2] x12 |[M:4/4] x8 |] %41
V:5
 z6 |!p! A3 B c2 | d3 c B2 |[M:2/4]!>(! A4!>)! |[M:3/2]!mp! c4 c2 d2 c2 cA |[M:4/4] c4 c2 G2 | %6
w: |Come a- way,|come a- way|death,|And in sad Cyp- ress- *|let me be|
[M:3/4] A6 | z6 |!pp! A3 B c2 | d3 c B2 | A6 |[M:4/4] A2 d2 c2 cA | (c2 A2) B4 | %13
w: laid.||Fly a- way,|fly a- way|breath.|I am slain by a|fair- * cruel|
[M:3/2] A6!<(! c2 _e2 e2!<)! |[M:4/4] f3!mf! f B2 c2 | d8 |[M:3/2] z4!mf! B3 c d2 =e2 | %17
w: maid. My shroud of|white stuck all with|Yew.|Oh! prep- are my|
 d2 _e2 =fe d2 e2 d2 |[M:4/4] G3 A B2 G2 |[M:3/2] _E6 F2 (F2 =E2) |[M:4/4] F8 |[M:3/4] z6 | %22
w: part of death- * no one so|true, no one so|true, did share- *|it.||
!mp! A3 B c2 | d3 c B2 |[M:2/4] A4 |[M:3/2] c4 c2 d2 c2 cA |[M:4/4] c4 c2 G2 |[M:3/4] A6 | z6 | %29
w: Not a flower,|not a flower|sweet,|On my black cof- fin- *|let there be|strown.||
!p! A3 B c2 | d3 c B2 |[M:3/2] A4 A2 d2 c2 cA |[M:4/4] c2 A2 B4 |[M:3/2] A6!mf!!<(! c2 _e2 e2!<)! | %34
w: Not a friend,|not a friend|greet my poor corpse where my|bones shall be|thrown, A thou- sand|
[M:4/4]!f! f3 f B2 c2 | d8 |[M:3/2] z4!p! B3 c d2 =e2 | d2 _e2 fe d2 e2 d2 |[M:4/4] G3 (A B2) G2 | %39
w: thou- sand sighs to|save,|Lay me, O! where|lov- er nev- * ver find my|grave, find- * my|
[M:3/2] _E6 F2 (F2 =E2) |[M:4/4]!>(! F8!>)! |] %41
w: grave to weep- *|there.|
V:6
 z6 |!p! F,3 G, A,2 | B,3 A, G,2 |[M:2/4]!>(! F,4!>)! |[M:3/2]!mp! A,4 A,2 B,2 F,2 E,D, | %5
w: |Come a- way,|come a- way|death,|And in sad Cyp- ress- *|
[M:4/4] C,2 A,,2 C,4 |[M:3/4] F,,6 | z6 |!pp! F,3 G, A,2 | B,3 A, G,2 | F,6 | %11
w: let me be|laid.||Fly a- way,|fly a- way|breath.|
[M:4/4] F,2 B,,2 F,2 E,D, | (C,2 F,2) (_E,2 _E,,2) |[M:3/2] F,,6!<(! F,2 _E,D, C,2!<)! | %14
w: I am slain by a|fair- * cruel- *|maid. My shroud- * of|
[M:4/4] B,,3!mf! A,, [G,,D,]2 [A,,E,]2 | D,8 |[M:3/2] z4!mf! G,3 A, B,2 C2 | D2 _E2 DC B,2 A,2 D2 | %18
w: white stuck all with|Yew.|Oh! prep- are my|part of death- * no one so|
[M:4/4] G,3 F, _E,2 _E,,2 |[M:3/2] _A,,6 _D,2 C,4 |[M:4/4] F,,8 |[M:3/4] z6 |!mp! F,3 G, A,2 | %23
w: true, no one so|true, did share|it.||Not a flower,|
 B,3 A, G,2 |[M:2/4] F,4 |[M:3/2] A,4 A,2 B,2 F,2 E,D, |[M:4/4] C,2 A,,2 C,4 |[M:3/4] F,,6 | z6 | %29
w: not a flower|sweet,|On my black cof- fin- *|let there be|strown.||
!p! F,3 G, A,2 | B,3 A, G,2 |[M:3/2] F,4 F,2 B,,2 F,2 E,D, |[M:4/4] C,2 F,2 (_E,2 _E,,2) | %33
w: Not a friend|not a friend|greet my poor corpse where my|bones shall be- *|
[M:3/2]"^Solo Soprano" F,,6!mf!!<(! F,2 _E,D, C,2!<)! |[M:4/4]!f! B,,3 A,, [G,,D,]2 [A,,E,]2 | %35
w: thrown, A thou- * sand|thou- sand sighs to|
 D,8 |[M:3/2] z4!p! G,3 A, B,2 C2 | D2 _E2 DC B,2 A,2 D2 |[M:4/4] G,3 (F, _E,2) _E,,2 | %39
w: save,|Lay me, O! where|lov- er nev- * ver find my|grave, find- * my|
[M:3/2] _A,,6 _D,2 C,4 |[M:4/4]!>(! F,,8!>)! |] %41
w: grave to weep|there.|

